images/vector-one.svg

<svg width="200" height="15" viewBox="0 0 200 15" fill="none" xmlns="http://www.w3.org/2000/svg">
<path d="M194.607 1.23264C191.333 4.29896 190.201 7.04695 183.188 8.54568C174.555 10.392 165.962 5.98673 161.708 2.37471C160.24 1.12805 156.68 0.888328 155.309 2.37471C149.3 8.88999 135.991 7.29901 130.312 1.01111C128.916 -0.53569 124.195 -0.259588 123.615 1.51004C120.424 11.2573 106.096 12.2889 96.5007 5.22405C97.548 3.3219 92.0846 2.02715 90.5951 3.88903C82.5402 13.9605 66.8144 12.8353 57.6871 3.84746C56.103 2.28766 52.5542 2.83467 51.5308 4.30611C44.1129 14.9759 32.5594 9.90019 26.076 2.55597C24.8133 1.1248 21.212 1.62047 20.4508 2.97498C16.9077 9.28302 11.0705 10.4608 1.23659 12.0927C-0.615315 12.4007 -0.329268 14.2327 1.70725 14.078C12.9748 13.2218 19.1288 12.0791 23.734 7.29576C33.1953 15.7177 46.4036 17.438 55.2665 8.57622C66.7586 16.7767 85.2194 17.7115 94.3661 7.95515C104.526 15.8334 121.565 15.4455 128.388 6.8605C137.19 12.7794 150.002 13.611 158.866 6.98719C172.057 14.5477 199.036 16.2401 199.997 2.06678C200.117 0.37641 196.055 -0.124463 194.607 1.23264Z" fill="#00B2A0"/>
</svg>

<svg width="200" height="15" fill="none" xmlns="http://www.w3.org/2000/svg"><path d="M194.607 1.233c-3.274 3.066-4.406 5.814-11.419 7.313-8.633 1.846-17.226-2.56-21.48-6.171-1.468-1.247-5.028-1.487-6.399 0-6.009 6.515-19.318 4.924-24.997-1.364-1.396-1.547-6.117-1.27-6.697.499-3.191 9.747-17.519 10.779-27.114 3.714 1.047-1.902-4.416-3.197-5.906-1.335-8.055 10.072-23.78 8.946-32.908-.042-1.584-1.56-5.133-1.012-6.156.46C44.113 14.975 32.559 9.9 26.076 2.555c-1.263-1.431-4.864-.936-5.625.419-3.543 6.308-9.38 7.486-19.214 9.118-1.852.308-1.566 2.14.47 1.985 11.268-.856 17.422-1.999 22.027-6.782 9.461 8.422 22.67 10.142 31.532 1.28 11.493 8.2 29.953 9.136 39.1-.62 10.16 7.877 27.199 7.49 34.022-1.096 8.802 5.92 21.614 6.751 30.478.127 13.191 7.56 40.17 9.253 41.131-4.92.12-1.69-3.942-2.191-5.39-.834z" fill="#00B2A0"/></svg>
